X: 13
T:The Fox Hunter
R:Slip Jig
M:9/8
L:1/8
K:Hp
cAc cAc d2B | cAc cAc B2A | cAc cAc d2f | ecA ABc B2A :|
~f3 f2e cde | f2B B2c dcB | [1 ~e3 e2d cde | eaA ABc B2A :|\
[2 ef^g a^gf ef^g | a2A ABc B2A ||
cdc cAc d2B | cdc cAc B2A | cdc cAc d2f | ecA ABc B2A :|
cac cac d2B | cac cac B2A | cac cac d2f | ecA ABc B2A :|

